status/symbolic/media-playlist-repeat-disabled-symbolic-rtl.svg

<?xml version="1.0" encoding="UTF-8" standalone="no"?>
<svg
   height="16"
   width="16"
   version="1.1"
   id="svg6"
   xmlns="http://www.w3.org/2000/svg"
   xmlns:svg="http://www.w3.org/2000/svg">
  <defs
     id="defs10" />
  <path
     id="rect955-6-0"
     style="font-variation-settings:normal;opacity:0.5;vector-effect:none;fill:#555761;fill-opacity:1;stroke:none;stroke-width:1;stroke-linecap:butt;stroke-linejoin:miter;stroke-miterlimit:4;stroke-dasharray:none;stroke-dashoffset:0;stroke-opacity:1;-inkscape-stroke:none;marker:none;stop-color:#000000;stop-opacity:1"
     d="m 5.484375,1 c 0.28748,0 0.519967,0.2017639 0.519531,0.4511719 V 3 H 11 c 0.764494,0 1.488064,0.1704155 2.134766,0.4746094 l -1.578125,1.578125 C 11.375957,5.0190169 11.190753,5 11,5 H 6.003906 V 6.5488281 C 6.003906,6.7982371 5.771855,7 5.484375,7 5.329436,7 5.190629,6.94243 5.095703,6.8496094 L 2.142578,4.3027344 C 2.054837,4.2221074 2,4.1137756 2,3.9941406 2,3.8745046 2.054838,3.7661769 2.142578,3.6855469 L 5.095703,1.1503906 C 5.190626,1.0575736 5.329436,1 5.484375,1 Z m 8.789063,3.2167969 C 15.331493,5.1322472 16,6.4846611 16,8 V 9.4472656 C 16,9.7347436 15.686122,10 15.441406,10 H 14.558594 C 14.313878,10 13.999759,9.7738081 14,9.4863281 V 8 C 14,7.0384515 13.550908,6.18696 12.851562,5.6386719 Z M 1.441406,6 C 1.686122,6 2.000241,6.2261919 2,6.5136719 V 8 c 0,1.662 1.338,3 3,3 H 5.609375 L 3.761719,12.847656 C 1.594728,12.299254 0,10.342137 0,8 V 6.5527344 C 0,6.2652564 0.313878,6 0.558594,6 Z m 9.074219,3 c 0.154939,0 0.293746,0.05757 0.388672,0.1503906 l 2.953125,2.5468754 C 13.945162,11.777896 14,11.886224 14,12.005859 c 0,0.119636 -0.05484,0.227964 -0.142578,0.308594 l -2.953125,2.535156 C 10.809374,14.942426 10.670564,15 10.515625,15 10.228145,15 9.995658,14.798236 9.996094,14.548828 V 13 h -4.50586 l 2,-2 h 2.50586 V 9.4511719 C 9.996094,9.2017629 10.228145,9 10.515625,9 Z" />
  <rect
     style="font-variation-settings:normal;vector-effect:none;fill:#555761;fill-opacity:1;stroke:none;stroke-width:0.992001;stroke-linecap:square;stroke-linejoin:miter;stroke-miterlimit:4;stroke-dasharray:none;stroke-dashoffset:0;stroke-opacity:1;-inkscape-stroke:none;marker:none;stop-color:#000000"
     id="rect2480-1-6"
     width="1.248"
     height="19.799999"
     x="-11.939474"
     y="-9.8975239"
     rx="0.5"
     ry="0.5"
     transform="matrix(-0.70710678,-0.70710678,-0.70710678,0.70710678,0,0)" />
</svg>

<svg
        xmlns='http://www.w3.org/2000/svg'
        xmlns:svg='http://www.w3.org/2000/svg'
        id='svg6'
        width='16'
        height='16'>
  <path
          id='rect955-6-0'
          opacity='0.5'
          fill='url(#gpa:foreground) #555761'
          fill-opacity='1'
          fill-rule='nonzero'
          stroke='none'
          stroke-opacity='1'
          stroke-width='1'
          stroke-linecap='butt'
          stroke-linejoin='miter'
          stroke-miterlimit='4'
          stroke-dasharray='none'
          stroke-dashoffset='0'
          marker-start='none'
          marker-mid='none'
          marker-end='none'
          d='M 5.48438 1 C 5.77185 1, 6.00434 1.20176, 6.00391 1.45117 L 6.00391 3 L 11 3 C 11.7645 3, 12.4881 3.17042, 13.1348 3.47461 L 11.5566 5.05273 C 11.376 5.01902, 11.1908 5, 11 5 L 6.00391 5 L 6.00391 6.54883 C 6.00391 6.79824, 5.77185 7, 5.48438 7 C 5.32944 7, 5.19063 6.94243, 5.0957 6.84961 L 2.14258 4.30273 C 2.05484 4.22211, 2 4.11378, 2 3.99414 C 2 3.8745, 2.05484 3.76618, 2.14258 3.68555 L 5.0957 1.15039 C 5.19063 1.05757, 5.32944 1, 5.48438 1 Z M 14.2734 4.2168 C 15.3315 5.13225, 16 6.48466, 16 8 L 16 9.44727 C 16 9.73474, 15.6861 10, 15.4414 10 L 14.5586 10 C 14.3139 10, 13.9998 9.77381, 14 9.48633 L 14 8 C 14 7.03845, 13.5509 6.18696, 12.8516 5.63867 Z M 1.44141 6 C 1.68612 6, 2.00024 6.22619, 2 6.51367 L 2 8 C 2 9.662, 3.338 11, 5 11 L 5.60938 11 L 3.76172 12.8477 C 1.59473 12.2993, 0 10.3421, 0 8 L 0 6.55273 C 0 6.26526, 0.313878 6, 0.558594 6 Z M 10.5156 9 C 10.6706 9, 10.8094 9.05757, 10.9043 9.15039 L 13.8574 11.6973 C 13.9452 11.7779, 14 11.8862, 14 12.0059 C 14 12.1255, 13.9452 12.2338, 13.8574 12.3145 L 10.9043 14.8496 C 10.8094 14.9424, 10.6706 15, 10.5156 15 C 10.2281 15, 9.99566 14.7982, 9.99609 14.5488 L 9.99609 13 L 5.49023 13 L 7.49023 11 L 9.99609 11 L 9.99609 9.45117 C 9.99609 9.20176, 10.2281 9, 10.5156 9 Z'
          class="foreground">
  </path>
  <rect
          id='rect2480-1-6'
          transform='matrix(-0.707107, -0.707107, -0.707107, 0.707107, 0, 0)'
          fill='url(#gpa:foreground) #555761'
          fill-opacity='1'
          fill-rule='nonzero'
          stroke='none'
          stroke-opacity='1'
          stroke-width='0.992001'
          stroke-linecap='square'
          stroke-linejoin='miter'
          stroke-miterlimit='4'
          stroke-dasharray='none'
          stroke-dashoffset='0'
          marker-start='none'
          marker-mid='none'
          marker-end='none'
          x='-11.9395'
          y='-9.89752'
          width='1.248'
          height='19.8'
          rx='0.5'
          ry='0.5'
          class="foreground">
  </rect>
</svg>
